assets/svg/networks/wallet_btc.svg

<svg width="36" height="36" viewBox="0 0 36 36" fill="none" xmlns="http://www.w3.org/2000/svg">
<g clip-path="url(#clip0_19002_45691)">
<rect width="36" height="36" rx="10" fill="#F7931A"/>
<path d="M26.0876 15.7725C26.4409 13.4145 24.6443 12.1466 22.1895 11.3006L22.986 8.10562L21.042 7.62188L20.2658 10.7325C19.755 10.6042 19.2308 10.485 18.7076 10.3657L19.4895 7.23488L17.5455 6.75L16.749 9.94387C16.326 9.84712 15.9098 9.75263 15.507 9.65138L15.5093 9.64125L12.8273 8.97187L12.3098 11.0486C12.3098 11.0486 13.7531 11.3794 13.7228 11.3996C14.5103 11.5965 14.652 12.1174 14.6284 12.5314L13.7216 16.1707C13.7756 16.1842 13.8454 16.2045 13.9241 16.2349L13.7183 16.1842L12.447 21.2827C12.3503 21.5212 12.1061 21.8801 11.5549 21.744C11.5751 21.7721 10.1419 21.3919 10.1419 21.3919L9.17664 23.6171L11.7079 24.2483C12.1781 24.3664 12.6394 24.4901 13.0928 24.606L12.2884 27.837L14.2313 28.3207L15.0278 25.1257C15.5588 25.2686 16.074 25.4014 16.578 25.5274L15.7838 28.7089L17.7278 29.1926L18.5321 25.9684C21.8486 26.5961 24.3416 26.343 25.3913 23.3438C26.2373 20.9295 25.3496 19.5356 23.6048 18.6278C24.876 18.3353 25.8323 17.4994 26.0876 15.7725ZM21.6439 22.0028C21.0443 24.4181 16.9774 23.112 15.6589 22.7846L16.7276 18.504C18.0461 18.8336 22.2728 19.485 21.6439 22.0028ZM22.2458 15.7376C21.6979 17.9348 18.3139 16.8176 17.217 16.5443L18.1845 12.663C19.2814 12.9364 22.8173 13.446 22.2458 15.7376Z" fill="white"/>
</g>
<defs>
<clipPath id="clip0_19002_45691">
<rect width="36" height="36" fill="white"/>
</clipPath>
</defs>
</svg>

<svg xmlns="http://www.w3.org/2000/svg" width="36" height="36" fill="none"><g clip-path="url(#a)"><rect width="36" height="36" fill="#F7931A" rx="10"/><path fill="#fff" d="M26.088 15.773c.353-2.358-1.444-3.626-3.899-4.472l.797-3.195-1.944-.484-.776 3.11c-.511-.128-1.035-.247-1.558-.366l.782-3.131-1.944-.485-.797 3.194c-.423-.097-.84-.191-1.242-.293l.002-.01-2.682-.67-.517 2.078s1.443.33 1.413.35c.787.198.929.718.905 1.132l-.906 3.64q.082.02.202.064l-.206-.05-1.271 5.098c-.097.238-.34.597-.892.461.02.028-1.413-.352-1.413-.352l-.965 2.225 2.53.631c.471.118.932.242 1.386.358l-.805 3.231 1.943.484.797-3.195a89 89 0 0 0 1.55.401l-.794 3.182 1.944.484.804-3.225c3.317.628 5.81.375 6.86-2.624.845-2.415-.042-3.808-1.787-4.716 1.271-.293 2.227-1.129 2.483-2.855m-4.444 6.23c-.6 2.415-4.667 1.109-5.985.782l1.069-4.281c1.318.33 5.545.981 4.916 3.499m.602-6.265c-.548 2.197-3.932 1.08-5.029.806l.968-3.881c1.096.273 4.632.783 4.06 3.075"/></g><defs><clipPath id="a"><path fill="#fff" d="M0 0h36v36H0z"/></clipPath></defs></svg>
